dist/img/search.svg

<svg width="20" height="20" viewBox="0 0 20 20" fill="none" xmlns="http://www.w3.org/2000/svg">
<path d="M18.8799 16.7601L14.6399 12.5201C14.2599 12.1401 13.6599 12.1401 13.2799 12.5001L11.4199 10.6601C12.2799 9.62007 12.8199 8.28007 12.8199 6.82007C12.8199 3.52007 10.1399 0.820068 6.81995 0.820068C3.49995 0.820068 0.819946 3.50007 0.819946 6.82007C0.819946 10.1401 3.49995 12.8201 6.81995 12.8201C8.25995 12.8201 9.59995 12.3001 10.6399 11.4401L12.4999 13.2801L12.4799 13.3001C12.0999 13.6801 12.0999 14.3201 12.4799 14.7001L16.7199 18.9201C17.0999 19.3001 17.7399 19.3001 18.1199 18.9201L18.8799 18.1601C19.2599 17.7601 19.2599 17.1401 18.8799 16.7601ZM1.93995 6.82007C1.93995 4.12007 4.13995 1.92007 6.83995 1.92007C9.53995 1.92007 11.7399 4.12007 11.7399 6.82007C11.7399 9.52007 9.53995 11.7201 6.83995 11.7201C4.13995 11.7201 1.93995 9.50007 1.93995 6.82007Z" fill="#828282"/>
</svg>

<svg fill="none" xmlns="http://www.w3.org/2000/svg" viewBox="0 0 20 20"><path d="M18.88 16.76l-4.24-4.24a.972.972 0 00-1.36-.02l-1.86-1.84c.86-1.04 1.4-2.38 1.4-3.84 0-3.3-2.68-6-6-6s-6 2.68-6 6a5.992 5.992 0 009.82 4.62l1.86 1.84-.02.02c-.38.38-.38 1.02 0 1.4l4.24 4.22c.38.38 1.02.38 1.4 0l.76-.76c.38-.4.38-1.02 0-1.4zM1.94 6.82c0-2.7 2.2-4.9 4.9-4.9s4.9 2.2 4.9 4.9-2.2 4.9-4.9 4.9-4.9-2.22-4.9-4.9z" fill="#828282"/></svg>
